images/icons/vk.svg

<svg width="38" height="23" viewBox="0 0 38 23" fill="none" xmlns="http://www.w3.org/2000/svg">
<path d="M37.134 1.53079C37.395 0.648998 37.134 0 35.8783 0H31.7233C30.6651 0 30.1784 0.557291 29.9174 1.17807C29.9174 1.17807 27.8011 6.33478 24.8101 9.67853C23.8436 10.645 23.3992 10.9554 22.8701 10.9554C22.6091 10.9554 22.207 10.645 22.207 9.76318V1.53079C22.207 0.472639 21.9107 0 21.036 0H14.5037C13.8406 0 13.4455 0.493803 13.4455 0.952334C13.4455 1.95405 14.9411 2.18684 15.0963 5.00857V11.1317C15.0963 12.472 14.8564 12.7189 14.3273 12.7189C12.9165 12.7189 9.48806 7.54107 7.45642 1.61544C7.04727 0.465586 6.64517 0 5.57997 0H1.42497C0.239847 0 0 0.557291 0 1.17807C0 2.27855 1.41086 7.74565 6.56757 14.9693C10.003 19.9002 14.8423 22.5738 19.2442 22.5738C21.8896 22.5738 22.2141 21.9813 22.2141 20.9584C22.2141 16.2461 21.9742 15.8017 23.3004 15.8017C23.9142 15.8017 24.9723 16.1121 27.4413 18.4894C30.263 21.3111 30.7286 22.5738 32.3088 22.5738H36.4638C37.6489 22.5738 38.2485 21.9813 37.9029 20.8103C37.1128 18.3483 31.7727 13.2833 31.5328 12.9447C30.9191 12.1546 31.0955 11.8019 31.5328 11.0965C31.5399 11.0894 36.6119 3.95042 37.134 1.53079Z" fill="white"/>
</svg>

<svg xmlns="http://www.w3.org/2000/svg" width="38" height="23" fill="none"><path fill="#fff" d="M37.134 1.53c.261-.881 0-1.53-1.256-1.53h-4.155c-1.058 0-1.545.557-1.806 1.178 0 0-2.116 5.157-5.107 8.5-.966.967-1.41 1.277-1.94 1.277-.26 0-.663-.31-.663-1.192V1.531C22.207.473 21.911 0 21.036 0h-6.532c-.663 0-1.059.494-1.059.952 0 1.002 1.496 1.235 1.651 4.057v6.123c0 1.34-.24 1.587-.769 1.587-1.41 0-4.839-5.178-6.87-11.104C7.046.465 6.644 0 5.58 0H1.425C.24 0 0 .557 0 1.178c0 1.1 1.41 6.568 6.568 13.791 3.435 4.931 8.274 7.605 12.676 7.605 2.646 0 2.97-.593 2.97-1.616 0-4.712-.24-5.156 1.086-5.156.614 0 1.672.31 4.141 2.687 2.822 2.822 3.288 4.085 4.868 4.085h4.155c1.185 0 1.785-.593 1.439-1.764-.79-2.462-6.13-7.527-6.37-7.865-.614-.79-.438-1.143 0-1.848.007-.008 5.079-7.147 5.601-9.566Z"/></svg>
